assets/img/breakfast-svg.svg

<svg
                            viewBox="0 0 42 38"
                            fill="none"
                            xmlns="http://www.w3.org/2000/svg"
                          >
                            <g clip-path="url(#clip0)">
                              <path
                                d="M39.9489 17.528H39.3422C39.1184 15.9972 38.4256 14.4714 37.3966 13.2744C36.1377 11.81 34.5354 11.0034 32.8848 11.0034C31.8659 11.0034 30.8374 11.32 29.9104 11.919C29.6339 12.0976 29.5698 12.4453 29.7672 12.6955C29.9646 12.9456 30.3489 13.0036 30.6255 12.825C31.3528 12.3549 32.113 12.1167 32.8848 12.1167C34.1474 12.1167 35.4048 12.7706 36.4254 13.9578C37.291 14.9648 37.8844 16.2393 38.1006 17.528H27.6687C27.8417 16.5017 28.2557 15.4755 28.8637 14.5855C29.0423 14.324 28.9528 13.9809 28.6638 13.8194C28.3748 13.6578 27.9956 13.7387 27.817 14.0002C27.0905 15.0637 26.6054 16.299 26.4251 17.5281H25.8206C24.6897 17.5281 23.7695 18.3606 23.7695 19.3838C23.7695 20.4071 24.6897 21.2396 25.8206 21.2396H25.9442C26.0854 23.7506 27.5604 25.9656 29.8206 27.0712L28.7129 30.9881C28.6038 31.3754 28.6967 31.7786 28.9678 32.0942C29.2387 32.4097 29.6475 32.5906 30.0891 32.5906H35.6804C36.1227 32.5906 36.5318 32.4093 36.8029 32.0932C37.0738 31.7774 37.1662 31.3742 37.0565 30.9876L35.949 27.0711C38.2092 25.9655 39.6842 23.7504 39.8254 21.2395H39.949C41.0799 21.2395 42.0001 20.407 42.0001 19.3838C42 18.3605 41.0798 17.528 39.9489 17.528V17.528ZM35.8307 31.4107C35.8093 31.4356 35.7615 31.4773 35.6804 31.4773H30.0891C30.0083 31.4773 29.9607 31.4358 29.9393 31.411C29.918 31.3863 29.8853 31.3339 29.9051 31.2636L30.966 27.512C31.5876 27.6908 32.2302 27.782 32.8848 27.782C33.5394 27.782 34.1819 27.6908 34.8035 27.512L35.8645 31.2637C35.8844 31.3341 35.8519 31.386 35.8307 31.4107V31.4107ZM32.8848 26.6687C29.974 26.6687 27.3831 24.3981 27.176 21.2395H38.5936C38.3851 24.4167 35.7788 26.6687 32.8848 26.6687ZM39.9489 20.1262H25.8206C25.3681 20.1262 25 19.7931 25 19.3838C25 18.9744 25.3681 18.6413 25.8206 18.6413H39.9489C40.4014 18.6413 40.7695 18.9744 40.7695 19.3838C40.7695 19.7931 40.4014 20.1262 39.9489 20.1262V20.1262Z"
                                fill="#59882B"
                              />
                              <path
                                d="M9.35135 8.65337L9.45216 8.70139C9.58144 8.76299 9.62804 8.86407 9.64428 8.91885C9.66052 8.97362 9.67619 9.08228 9.59842 9.1942L8.96334 10.108C8.78246 10.3682 8.869 10.7119 9.1566 10.8755C9.25841 10.9334 9.37161 10.961 9.4835 10.961C9.688 10.961 9.88799 10.8689 10.0049 10.7007L10.64 9.78691C10.8787 9.4435 10.9488 9.02179 10.8325 8.63006C10.7162 8.23833 10.4219 7.90524 10.0253 7.71643L9.9245 7.66841C9.79522 7.60681 9.74854 7.50572 9.7323 7.45095C9.71606 7.39618 9.70031 7.28752 9.77807 7.17567L10.4132 6.26167C10.5941 6.00138 10.5075 5.65775 10.2199 5.49417C9.93221 5.33052 9.55241 5.40889 9.37161 5.6691L8.73644 6.58311C8.49781 6.92652 8.42768 7.34816 8.544 7.73981C8.66048 8.13139 8.95473 8.46448 9.35135 8.65337V8.65337Z"
                                fill="#59882B"
                              />
                              <path
                                d="M13.3122 8.65344L13.413 8.70146C13.5423 8.76306 13.5889 8.86415 13.6051 8.91892C13.6214 8.97369 13.637 9.08235 13.5593 9.19427L12.9242 10.1081C12.7433 10.3683 12.8298 10.7119 13.1175 10.8755C13.2192 10.9334 13.3325 10.961 13.4444 10.961C13.6489 10.961 13.8489 10.8689 13.9658 10.7006L14.6009 9.78691C14.8396 9.4435 14.9097 9.02179 14.7934 8.63006C14.6771 8.23833 14.3829 7.90524 13.9862 7.71643L13.8854 7.66841C13.7561 7.60681 13.7095 7.50572 13.6932 7.45095C13.677 7.39617 13.6613 7.28752 13.7391 7.17567L14.3742 6.26167C14.5551 6.00138 14.4685 5.65775 14.1809 5.49417C13.8931 5.33052 13.5134 5.40889 13.3326 5.6691L12.6974 6.58311C12.4588 6.92644 12.3886 7.34808 12.5049 7.73981C12.6213 8.13146 12.9156 8.46455 13.3122 8.65344V8.65344Z"
                                fill="#59882B"
                              />
                              <path
                                d="M17.273 8.65337L17.3738 8.70139C17.5031 8.76299 17.5497 8.86407 17.5659 8.91885C17.5822 8.97369 17.5979 9.08235 17.5201 9.1942L16.885 10.108C16.7041 10.3682 16.7906 10.7119 17.0782 10.8755C17.18 10.9334 17.2932 10.961 17.4051 10.961C17.6096 10.961 17.8096 10.8689 17.9265 10.7007L18.5616 9.78691C18.8003 9.4435 18.8705 9.02179 18.754 8.63006C18.6377 8.23833 18.3435 7.90524 17.9469 7.71643L17.846 7.66841C17.7168 7.60681 17.6702 7.5058 17.6539 7.45095C17.6377 7.3961 17.6219 7.28752 17.6997 7.17567L18.3349 6.26167C18.5157 6.00138 18.4291 5.65775 18.1415 5.49417C17.8537 5.33052 17.474 5.40889 17.2932 5.6691L16.6581 6.58311C16.4194 6.92652 16.3493 7.34816 16.4656 7.73988C16.5821 8.13146 16.8764 8.46448 17.273 8.65337V8.65337Z"
                                fill="#59882B"
                              />
                              <path
                                d="M22.8984 28.9386H19.5014C21.074 27.767 22.0369 25.9985 22.0369 24.0818V14.0705C22.0369 13.2896 21.3347 12.6544 20.4718 12.6544H18.1946C17.8548 12.6544 17.5794 12.9036 17.5794 13.211C17.5794 13.5184 17.8548 13.7677 18.1946 13.7677H20.4718C20.6564 13.7677 20.8065 13.9035 20.8065 14.0705V24.0818C20.8065 26.2533 19.3045 28.1933 17.0593 28.9386H10.2392C7.9936 28.1934 6.49128 26.2534 6.49128 24.0818V14.0705C6.49128 13.9035 6.6418 13.7677 6.82678 13.7677H10.0743V16.5373C10.0514 16.5474 10.0286 16.5579 10.0063 16.5693L9.20479 16.9772C8.7665 17.2003 8.49415 17.6217 8.49415 18.0766V19.8193C8.49415 20.515 9.11964 21.0809 9.88852 21.0809H11.4912C12.2601 21.0809 12.8856 20.515 12.8856 19.8193V18.0766C12.8856 17.6216 12.6133 17.2003 12.1749 16.9771C12.1749 16.9771 11.328 16.5472 11.3049 16.5369V13.7676H15.3236C15.6634 13.7676 15.9388 13.5184 15.9388 13.2109C15.9388 12.9035 15.6634 12.6543 15.3236 12.6543H6.82687C5.96341 12.6543 5.26089 13.2895 5.26089 14.0704V14.8842L3.67998 14.8476C2.73269 14.825 1.83264 15.1377 1.14538 15.7278C0.458042 16.3181 0.066015 17.1152 0.0414877 17.9723L0.000472058 19.395C-0.0201998 20.1486 0.640644 20.778 1.47408 20.798C2.59651 20.8243 3.65898 21.2822 4.38898 22.0544L5.26089 22.9766V24.0817C5.26089 25.9984 6.22402 27.767 7.79672 28.9386H4.39997C3.96004 28.9386 3.60214 29.2624 3.60214 29.6603V30.1119C3.60214 31.4788 4.83129 32.5909 6.34214 32.5909H15.6862C16.0259 32.5909 16.3014 32.3417 16.3014 32.0343C16.3014 31.7269 16.0259 31.4777 15.6862 31.4777H6.34223C5.50986 31.4777 4.83269 30.865 4.83269 30.1119V30.0518H22.4658V30.1119C22.4658 30.865 21.7886 31.4777 20.9563 31.4777H18.5573C18.2176 31.4777 17.9421 31.7269 17.9421 32.0343C17.9421 32.3417 18.2176 32.5909 18.5573 32.5909H20.9563C22.467 32.5909 23.6963 31.4788 23.6963 30.1119V29.6603C23.6962 29.2625 23.3384 28.9386 22.8984 28.9386V28.9386ZM11.5716 17.9474C11.6232 17.9736 11.6552 18.0231 11.6552 18.0766V19.8193C11.6552 19.9011 11.5817 19.9676 11.4913 19.9676H9.8886C9.7982 19.9676 9.7247 19.9011 9.7247 19.8193V18.0766C9.7247 18.0231 9.75678 17.9736 9.80821 17.9474L10.6097 17.5395C10.6339 17.5271 10.6611 17.521 10.6883 17.5208L10.6896 17.5209L10.6914 17.5208C10.7188 17.521 10.746 17.5272 10.7703 17.5396L11.5716 17.9474ZM1.50624 19.6853C1.35038 19.6816 1.22668 19.5638 1.23053 19.4235L1.27155 18.0013C1.28754 17.4415 1.54356 16.9208 1.99244 16.5354C2.44131 16.15 3.0303 15.9456 3.64799 15.9606L5.26089 15.9979V21.2675C4.30711 20.2952 2.94474 19.719 1.50624 19.6853V19.6853Z"
                                fill="#59882B"
                              />
                            </g>
                            <defs>
                              <clipPath id="clip0">
                                <rect width="42" height="38" fill="white" />
                              </clipPath>
                            </defs>
                          </svg>

<svg xmlns="http://www.w3.org/2000/svg" viewBox="0 0 42 38" fill="none" xmlns:v="https://vecta.io/nano"><g clip-path="url(#A)" fill="#59882b"><path d="M39.95 17.528h-.607c-.224-1.53-.917-3.057-1.946-4.254-1.26-1.464-2.86-2.27-4.512-2.27-1.02 0-2.047.317-2.974.916-.276.18-.34.526-.143.776a.66.66 0 0 0 .858.13c.727-.47 1.488-.708 2.26-.708 1.263 0 2.52.654 3.54 1.84a7.46 7.46 0 0 1 1.675 3.57H27.67c.173-1.026.587-2.052 1.195-2.942.18-.26.1-.605-.2-.766s-.668-.08-.847.18c-.727 1.064-1.212 2.3-1.392 3.528h-.605c-1.13 0-2.05.833-2.05 1.856s.92 1.856 2.05 1.856h.124c.14 2.5 1.616 4.726 3.876 5.832l-1.108 3.917a1.18 1.18 0 0 0 .255 1.106c.27.316.68.496 1.12.496h5.6a1.47 1.47 0 0 0 1.123-.497 1.18 1.18 0 0 0 .254-1.106L35.95 27.07c2.26-1.106 3.735-3.32 3.876-5.832h.124c1.13 0 2.05-.832 2.05-1.856s-.92-1.856-2.05-1.856h0zM35.83 31.4c-.02.025-.07.067-.15.067h-5.6c-.08 0-.128-.04-.15-.066s-.054-.077-.034-.147l1.06-3.752c.622.18 1.264.27 1.92.27s1.297-.1 1.92-.27l1.06 3.752c.02.07-.013.122-.034.147h0zm-2.946-4.742c-2.9 0-5.502-2.27-5.7-5.43h11.418c-.2 3.177-2.815 5.43-5.7 5.43zm7.064-6.542H25.82c-.453 0-.82-.333-.82-.742s.368-.742.82-.742h14.13c.453 0 .82.333.82.742s-.368.742-.82.742h0zM9.35 8.653l.1.048a.35.35 0 0 1 .192.217c.016.055.032.163-.046.275l-.635.914c-.18.26-.094.604.193.768a.66.66 0 0 0 .327.085c.205 0 .404-.092.52-.26l.635-.914c.24-.343.3-.765.192-1.157s-.4-.725-.807-.914l-.1-.048a.35.35 0 0 1-.192-.217c-.016-.055-.032-.163.046-.275l.635-.914c.18-.26.094-.604-.193-.767s-.667-.085-.848.175l-.635.914c-.24.343-.3.765-.192 1.157s.4.725.807.914h0zm3.962 0l.1.048a.35.35 0 0 1 .192.217c.016.055.032.163-.046.275l-.635.914c-.18.26-.094.604.193.767a.66.66 0 0 0 .327.085c.204 0 .405-.092.52-.26l.635-.914a1.34 1.34 0 0 0 .193-1.157c-.117-.392-.4-.725-.807-.914l-.1-.048a.35.35 0 0 1-.192-.217c-.016-.054-.032-.163.046-.275l.635-.914c.18-.26.094-.604-.193-.767s-.667-.085-.848.175l-.635.914a1.34 1.34 0 0 0-.193 1.157c.117.392.4.725.807.914h0zm3.96 0l.1.048a.35.35 0 0 1 .192.217c.016.055.032.163-.046.275l-.635.914c-.18.26-.094.604.193.768a.66.66 0 0 0 .327.085.63.63 0 0 0 .52-.26l.635-.914c.24-.343.3-.765.192-1.157s-.4-.725-.807-.914l-.1-.048a.35.35 0 0 1-.192-.217c-.016-.055-.032-.163.046-.275l.635-.914c.18-.26.094-.604-.193-.767s-.668-.085-.848.175l-.635.914a1.34 1.34 0 0 0-.193 1.157c.117.392.4.725.807.913h0zm5.625 20.287H19.5c1.573-1.172 2.535-2.94 2.535-4.857V14.07c0-.78-.702-1.416-1.565-1.416h-2.277c-.34 0-.615.25-.615.557s.275.557.615.557h2.277c.185 0 .335.136.335.303v10c0 2.17-1.502 4.1-3.747 4.857h-6.82C7.992 28.193 6.5 26.253 6.5 24.08V14.07c0-.167.15-.303.336-.303h3.248v2.77l-.068.032-.802.408c-.438.223-.7.645-.7 1.1v1.743c0 .696.625 1.262 1.394 1.262h1.603c.77 0 1.394-.566 1.394-1.262v-1.743c0-.455-.272-.876-.7-1.1l-.87-.44v-2.77h4.02c.34 0 .615-.25.615-.557s-.275-.557-.615-.557H6.827c-.863 0-1.566.635-1.566 1.416v.814l-1.58-.037a3.79 3.79 0 0 0-2.535.88A3.05 3.05 0 0 0 .04 17.972L0 19.395c-.02.754.64 1.383 1.474 1.403 1.122.026 2.185.484 2.915 1.256l.872.922v1.105c0 1.917.963 3.685 2.536 4.857H4.4c-.44 0-.798.324-.798.722v.452c0 1.367 1.23 2.48 2.74 2.48h9.344c.34 0 .615-.25.615-.557s-.276-.557-.615-.557H6.342c-.832 0-1.5-.613-1.5-1.366v-.06h17.633v.06c0 .753-.677 1.366-1.5 1.366h-2.4c-.34 0-.615.25-.615.557s.276.557.615.557h2.4c1.5 0 2.74-1.112 2.74-2.48v-.452c0-.398-.358-.722-.798-.722h0zm-11.327-11c.052.026.084.076.084.13v1.743c0 .082-.074.148-.164.148H9.9c-.1 0-.164-.067-.164-.148V18.08c0-.053.032-.103.084-.13l.8-.408c.024-.012.05-.018.08-.02h.003c.027 0 .055.006.08.02l.8.408zM1.506 19.685c-.156-.004-.28-.122-.276-.262L1.272 18c.016-.56.272-1.08.72-1.466a2.39 2.39 0 0 1 1.656-.575l1.613.037v5.27c-.954-.972-2.316-1.548-3.755-1.582h0z"/></g><defs><clipPath id="A"><path fill="#fff" d="M0 0h42v38H0z"/></clipPath></defs></svg>
